src/components/icons/help.svg

<svg viewBox="0 0 24 24" fill="none" xmlns="http://www.w3.org/2000/svg">
  <path d="M12 3c-4.968 0-9 4.032-9 9s4.032 9 9 9 9-4.032 9-9-4.032-9-9-9Zm0 16.2c-3.969 0-7.2-3.231-7.2-7.2 0-3.969 3.231-7.2 7.2-7.2 3.969 0 7.2 3.231 7.2 7.2 0 3.969-3.231 7.2-7.2 7.2Zm-.9-3.6h1.8v1.8h-1.8v-1.8Zm1.449-8.964a3.602 3.602 0 0 0-3.987 2.511.816.816 0 0 0 .783 1.053h.18c.369 0 .666-.261.792-.603a1.802 1.802 0 0 1 2.07-1.152c.855.18 1.485 1.017 1.413 1.89-.09 1.206-1.458 1.467-2.205 2.592 0 .009-.009.009-.009.018-.009.018-.018.027-.027.045a2.998 2.998 0 0 0-.225.45c-.009.027-.027.045-.036.072-.009.018-.009.036-.018.063-.108.306-.18.675-.18 1.125h1.8c0-.378.099-.693.252-.963.018-.027.027-.054.045-.081.072-.126.162-.243.252-.351.009-.009.018-.027.027-.036.09-.108.189-.207.297-.306.864-.819 2.034-1.485 1.791-3.204-.216-1.566-1.449-2.889-3.015-3.123Z" fill="url(#a)"/>
  <defs>
    <linearGradient id="a" x1="16.77" y1="4.35" x2="7.32" y2="19.47" gradientUnits="userSpaceOnUse">
      <stop stop-color="#FCB16C"/>
      <stop offset=".458" stop-color="#EC6A35"/>
      <stop offset="1" stop-color="#C83B26"/>
    </linearGradient>
  </defs>
</svg>

<svg viewBox="0 0 24 24" fill="none" xmlns="http://www.w3.org/2000/svg">
<path d="M12 3C7.032 3 3 7.032 3 12C3 16.968 7.032 21 12 21C16.968 21 21 16.968 21 12C21 7.032 16.968 3 12 3ZM12 19.2C8.031 19.2 4.8 15.969 4.8 12C4.8 8.031 8.031 4.8 12 4.8C15.969 4.8 19.2 8.031 19.2 12C19.2 15.969 15.969 19.2 12 19.2ZM11.1 15.6H12.9V17.4H11.1V15.6ZM12.549 6.636C10.695 6.366 9.057 7.509 8.562 9.147C8.4 9.669 8.796 10.2 9.345 10.2H9.525C9.894 10.2 10.191 9.939 10.317 9.597C10.605 8.796 11.46 8.247 12.387 8.445C13.242 8.625 13.872 9.462 13.8 10.335C13.71 11.541 12.342 11.802 11.595 12.927C11.595 12.936 11.586 12.936 11.586 12.945C11.577 12.963 11.568 12.972 11.559 12.99C11.478 13.125 11.397 13.278 11.334 13.44C11.325 13.467 11.307 13.485 11.298 13.512C11.289 13.53 11.289 13.548 11.28 13.575C11.172 13.881 11.1 14.25 11.1 14.7H12.9C12.9 14.322 12.999 14.007 13.152 13.737C13.17 13.71 13.179 13.683 13.197 13.656C13.269 13.53 13.359 13.413 13.449 13.305C13.458 13.296 13.467 13.278 13.476 13.269C13.566 13.161 13.665 13.062 13.773 12.963C14.637 12.144 15.807 11.478 15.564 9.759C15.348 8.193 14.115 6.87 12.549 6.636Z" fill="url(#paint0_linear_1505_3762)"/>
<defs>
<linearGradient id="paint0_linear_1505_3762" x1="16.77" y1="4.35" x2="7.32" y2="19.47" gradientUnits="userSpaceOnUse">
<stop stop-color="#FCB16C"/>
<stop offset="0.458333" stop-color="#EC6A35"/>
<stop offset="1" stop-color="#C83B26"/>
</linearGradient>
</defs>
</svg>
